svg/workdflow.svg

<?xml version="1.0" encoding="UTF-8"?>
<svg xmlns="http://www.w3.org/2000/svg" xmlns:xlink="http://www.w3.org/1999/xlink" width="32" height="32" viewBox="0 0 32 32">
<path fill-rule="nonzero" fill="rgb(0%, 0%, 0%)" fill-opacity="1" d="M 6.398438 0 C 2.867188 0.00390625 0.00390625 2.867188 0 6.398438 C 0.00390625 9.605469 2.378906 12.316406 5.558594 12.738281 L 3.378906 14.898438 C 3.128906 15.15625 3.128906 15.5625 3.378906 15.820312 C 3.628906 16.070312 4.050781 16.070312 4.300781 15.820312 L 5.761719 14.339844 L 5.761719 19.199219 L 0.640625 19.199219 C 0.472656 19.199219 0.308594 19.265625 0.1875 19.386719 C 0.0703125 19.507812 0 19.671875 0 19.839844 L 0 31.359375 C 0 31.714844 0.289062 32 0.640625 32 L 12.160156 32 C 12.332031 32 12.492188 31.933594 12.613281 31.8125 C 12.734375 31.691406 12.800781 31.53125 12.800781 31.359375 L 12.800781 19.839844 C 12.800781 19.488281 12.515625 19.199219 12.160156 19.199219 L 7.039062 19.199219 L 7.039062 14.339844 L 8.5 15.820312 C 8.625 15.945312 8.792969 16 8.960938 16 C 9.132812 16.003906 9.296875 15.9375 9.421875 15.820312 C 9.667969 15.5625 9.667969 15.15625 9.421875 14.898438 L 7.242188 12.738281 C 10.179688 12.347656 12.46875 9.988281 12.761719 7.039062 L 17.660156 7.039062 L 16.179688 8.5 C 15.929688 8.757812 15.929688 9.164062 16.179688 9.421875 C 16.304688 9.546875 16.476562 9.601562 16.640625 9.601562 C 16.8125 9.605469 16.976562 9.539062 17.101562 9.421875 L 19.519531 7 L 24.960938 12.441406 L 24.960938 17.660156 L 23.5 16.179688 C 23.242188 15.929688 22.835938 15.929688 22.578125 16.179688 C 22.332031 16.4375 22.332031 16.84375 22.578125 17.101562 L 24.761719 19.261719 C 21.582031 19.683594 19.203125 22.394531 19.199219 25.601562 C 19.203125 29.136719 22.070312 31.996094 25.601562 32 C 29.132812 31.996094 31.996094 29.132812 32 25.601562 C 31.996094 22.394531 29.621094 19.683594 26.441406 19.261719 L 28.621094 17.101562 C 28.871094 16.84375 28.871094 16.4375 28.621094 16.179688 C 28.363281 15.929688 27.957031 15.929688 27.699219 16.179688 L 26.238281 17.660156 L 26.238281 12.441406 L 31.820312 6.859375 C 32.070312 6.605469 32.070312 6.195312 31.820312 5.941406 L 26.058594 0.179688 C 25.804688 -0.0703125 25.398438 -0.0703125 25.140625 0.179688 L 19.519531 5.800781 L 17.101562 3.378906 C 16.84375 3.128906 16.4375 3.128906 16.179688 3.378906 C 15.929688 3.636719 15.929688 4.046875 16.179688 4.300781 L 17.660156 5.761719 L 12.757812 5.761719 C 12.433594 2.492188 9.683594 0 6.398438 0 "/>
</svg>

<svg role="img" viewBox="0 0 32 32" xmlns="http://www.w3.org/2000/svg"><path d="M6.398 0A6.407 6.407 0 0 0 0 6.398a6.4 6.4 0 0 0 5.559 6.34l-2.18 2.16a.66.66 0 0 0 0 .922c.25.25.672.25.922 0l1.46-1.48v4.86H.642a.64.64 0 0 0-.641.64v11.52a.64.64 0 0 0 .64.64h11.52a.64.64 0 0 0 .453-.187.64.64 0 0 0 .188-.454V19.84a.64.64 0 0 0-.64-.64H7.038v-4.86L8.5 15.82c.125.125.293.18.46.18a.65.65 0 0 0 .462-.18.67.67 0 0 0 0-.922l-2.18-2.16a6.39 6.39 0 0 0 5.52-5.699h4.898L16.18 8.5a.66.66 0 0 0 0 .922c.125.125.297.18.46.18a.65.65 0 0 0 .462-.18L19.52 7l5.44 5.441v5.22L23.5 16.18a.66.66 0 0 0-.922 0 .67.67 0 0 0 0 .922l2.184 2.16a6.4 6.4 0 0 0-5.563 6.34A6.407 6.407 0 0 0 25.602 32 6.407 6.407 0 0 0 32 25.602a6.4 6.4 0 0 0-5.559-6.34l2.18-2.16a.66.66 0 0 0 0-.922.66.66 0 0 0-.922 0l-1.46 1.48v-5.219L31.82 6.86a.656.656 0 0 0 0-.918L26.06.18a.656.656 0 0 0-.918 0L19.52 5.8l-2.418-2.42a.66.66 0 0 0-.922 0 .66.66 0 0 0 0 .922l1.48 1.46h-4.902A6.39 6.39 0 0 0 6.398 0"/></svg>
